casedrop/img/errors/wallet-mini.svg

<svg width="19" height="19" viewBox="0 0 19 19" fill="none" xmlns="http://www.w3.org/2000/svg">
<path fill-rule="evenodd" clip-rule="evenodd" d="M14.6815 13.2424H18.136V12.0909H14.6815V13.2424ZM16.9845 6.33336H0.863281V17.8485C0.863281 18.4841 1.37916 19 2.0148 19H16.9845C17.6201 19 18.136 18.4841 18.136 17.8485V14.394H14.1057C13.7879 14.394 13.5299 14.1366 13.5299 13.8182V11.5152C13.5299 11.1974 13.7879 10.9394 14.1057 10.9394H18.136V7.48487C18.136 6.84924 17.6201 6.33336 16.9845 6.33336ZM16.9845 1.15154C16.9845 0.833147 16.8486 0.656958 16.5527 0.540079C16.3247 0.449686 16.103 0.503813 15.833 0.575783L0.863281 5.18184H16.9845V1.15154Z" fill="white"/>
</svg>

<svg width="19" height="19" fill="none" xmlns="http://www.w3.org/2000/svg"><path fill-rule="evenodd" clip-rule="evenodd" d="M14.681 13.242h3.455v-1.151h-3.454v1.151zm2.304-6.909H.863V17.85c0 .635.516 1.151 1.152 1.151h14.97c.635 0 1.151-.516 1.151-1.151v-3.455h-4.03a.576.576 0 01-.576-.576v-2.303c0-.318.258-.576.576-.576h4.03V7.485c0-.636-.516-1.152-1.151-1.152zm0-5.181c0-.319-.136-.495-.432-.612-.228-.09-.45-.036-.72.036L.863 5.182h16.122v-4.03z" fill="#fff"/></svg>
